svg/600/outlined/vertical_split-fill.svg

<svg xmlns="http://www.w3.org/2000/svg" width="48" height="48" viewBox="0 -960 960 960"><path d="M89.825-353.999v-79.219H430.13v79.219H89.825Zm0 173.217V-260H430.13v79.218H89.825Zm0-346v-79.219H430.13v79.219H89.825Zm0-173.218v-79.784H430.13V-700H89.825Zm527.088 519.218q-33.49 0-56.636-22.98Q537.13-226.743 537.13-260v-440q0-33.49 23.147-56.637 23.146-23.147 56.636-23.147h175.044q32.663 0 55.941 23.147Q871.175-733.49 871.175-700v440q0 33.257-23.277 56.238-23.278 22.98-55.941 22.98H616.913Z"/></svg>

<svg xmlns="http://www.w3.org/2000/svg" width="48" height="48" viewBox="0 -960 960 960"><path d="M89.82-354v-79.22h340.31V-354H89.82Zm0 173.22V-260h340.31v79.22H89.82Zm0-346V-606h340.31v79.22H89.82Zm0-173.22v-79.78h340.31V-700H89.82Zm527.09 519.22q-33.49 0-56.63-22.98-23.15-22.98-23.15-56.24v-440q0-33.49 23.15-56.64 23.14-23.14 56.63-23.14h175.05q32.66 0 55.94 23.14 23.28 23.15 23.28 56.64v440q0 33.26-23.28 56.24-23.28 22.98-55.94 22.98H616.91Z"/></svg>
